!!!CDT:
!!!PTL: Scherzi et arie a une, due, tre, et quattro voci per cantare nel clavicembalo ò altro simile istromento 
!!!PPP: Venice
!!!PPR: Giacomo Vincenzi
!!!PDT: 1614
!!!RISM:
!!!rime:
!!!AGN: Madrigal
!!!SCT: Tsg07020c
!!!SCA: Tsg07020c
!!!voices:
!!!COM: Cifra, Antonio
!!!OTL: Indi dicea piangendo: "In voi serbate
**kern	**kern	**text	**kern	**text	**kern	**text	**kern	**text
*part5	*part4	*part4	*part3	*part3	*part2	*part2	*part1	*part1
*staff5	*staff4	*staff4	*staff3	*staff3	*staff2	*staff2	*staff1	*staff1
*I"[Basso continuo]	*I"[Basso]	*	*I"[Tenore]	*	*I"[Alto]	*	*I"[Canto I]	*
*I'Bc	*I'B	*	*I'T	*	*I'A	*	*I'C I	*
*oclefF4	*oclefC4	*	*oclefC4	*	*oclefC3	*	*oclefC1	*
*clefF4	*clefF4	*	*clefGv2	*	*clefG2	*	*clefG2	*
*k[b-]	*k[b-]	*	*k[b-]	*	*k[b-]	*	*k[b-]	*
*F:	*F:	*	*F:	*	*F:	*	*F:	*
*omet(C)	*omet(C)	*	*omet(C)	*	*omet(C)	*	*omet(C)	*
*M4/4	*M4/4	*	*M4/4	*	*M4/4	*	*M4/4	*
=1	=1	=1	=1	=1	=1	=1	=1	=1
!!LO:TX:a:t=[Aria del Gazzella. A 4.] Terza parte.
2G	2r	.	2r	.	2r	.	2r	.
[2G	[2G	In-	2d	In-	2g	In-	2bnX	In-
=2	=2	=2	=2	=2	=2	=2	=2	=2
4G]	4G]	.	4G	-di	4d	-di	8bnXi	-di
.	.	.	.	.	.	.	8bni	di-
4F	8F	-di	4A	di-	8r	.	2cc	-cea
.	8F	di-	.	.	8c	di-	.	.
4E	4E	-cea	4G	-cea	4e	-cea	.	.
4D	4D	pian-	4F	pian-	4f	pian-	4bnX	pian-
=3	=3	=3	=3	=3	=3	=3	=3	=3
2.C	2C	-gen-	2G	-gen-	2e	-gen-	2cc	-gen-
.	2C	-do:	2E	-do:	2c	-do:	2g	-do:
4BB-y	.	.	.	.	.	.	.	.
=4	=4	=4	=4	=4	=4	=4	=4	=4
4AA	2r	.	1r	.	2r	.	2r	.
4GG	.	.	.	.	.	.	.	.
[2FF	4r	.	.	.	4f	"In	4r	.
.	4F	"In	.	.	[4c	voi	4cc	"In
=5	=5	=5	=5	=5	=5	=5	=5	=5
2FF]	4.FF	voi	4c	"In	8c]	.	4.a	voi
.	.	.	.	.	8c	ser-	.	.
.	.	.	8F	voi	2d	-ba-	.	.
.	8F	ser-	8F	ser-	.	.	8a	ser-
2EE	2E	-ba-	2G	-ba-	.	.	2g	-ba-
.	.	.	.	.	4c#X	.	.	.
=6	=6	=6	=6	=6	=6	=6	=6	=6
2DD	1D	-te	1A	-te	2d	-te	2f#X	-te
[2D	.	.	.	.	2r	.	2r	.
=7	=7	=7	=7	=7	=7	=7	=7	=7
4D]	1r	.	1r	.	4f	Que-	2r	.
4C	.	.	.	.	8e	-sta	.	.
.	.	.	.	.	8e	do-	.	.
[2BB-y	.	.	.	.	4d	-len-	4ffnXi	Que-
.	.	.	.	.	4c	-te hi-	8ee	-sta
.	.	.	.	.	.	.	8ee	do-
=8	=8	=8	=8	=8	=8	=8	=8	=8
4BB-]	4BB-y	Que-	4f	Que-	4B-y	-sto-	4dd	-len-
4C	8C	-sta	8e	-sta	4G	-ria,	4cc	-te hi-
.	8C	do-	8e	do-	.	.	.	.
4D	4D	-len-	4.d	-len-	2r	.	[2b-y	-sto-
4E	4E	-te hi-	.	.	.	.	.	.
.	.	.	8c	-te hi-	.	.	.	.
=9	=9	=9	=9	=9	=9	=9	=9	=9
[1F	1F	-sto-	2c	-sto-	1r	.	2b-]	.
.	.	.	2c	-ria,	.	.	2a	-ria,
=10	=10	=10	=10	=10	=10	=10	=10	=10
2F]	2F	-ria, a-	2r	.	2a	a-	4r	.
.	.	.	.	.	.	.	4dd	a-
2G	2G	-mi-	2d	a-	4.g	-mi-	2b-y	-mi-
.	.	.	.	.	8f	-che	.	.
=11	=11	=11	=11	=11	=11	=11	=11	=11
2C	2C	-che	4.c	-mi-	2e-X	pian-	4a	-che
.	.	.	.	.	.	.	2g	pian-
.	.	.	8B-y	-che	.	.	.	.
2D	2D	pian-	2A	pian-	[2d	-te:	.	.
.	.	.	.	.	.	.	4f#X	.
=12	=12	=12	=12	=12	=12	=12	=12	=12
4GG	2GG	-te,	2G	-te,	2d]	.	2g	-te:
2G	.	.	.	.	.	.	.	.
.	4r	.	2r	.	2r	.	2r	.
4F#X	4F#X	Per-	.	.	.	.	.	.
=13	=13	=13	=13	=13	=13	=13	=13	=13
4G	4G	-ché	1r	.	1r	.	2r	.
4A	4A	se	.	.	.	.	.	.
[2B-y	4B-y	fia	.	.	.	.	4r	.
.	[4B-y	ch'a	.	.	.	.	4f	Per-
=14	=14	=14	=14	=14	=14	=14	=14	=14
4B-]	8B-]	.	2r	.	4r	.	4g	-ché
.	8B-y	le	.	.	.	.	.	.
4A	4A	vo-	.	.	4f	Per-	4a	se
4G	4G	-str'om-	4r	.	4g	-ché	8b-y	fia,
.	.	.	.	.	.	.	8b-y	<Per-
4F	4F	-bre	4F	Per-	4a	se	8cc	-ché
.	.	.	.	.	.	.	8dd	se
=15	=15	=15	=15	=15	=15	=15	=15	=15
2.E-X	2E-X	gra-	4G	-ché	2b-y	fia	2ee-X	fia>
.	.	.	4A	se	.	.	.	.
.	2E-i	-te,	2B-y	fia	2r	.	2r	.
4E-i	.	.	.	.	.	.	.	.
=16	=16	=16	=16	=16	=16	=16	=16	=16
4D	2r	.	2r	.	2r	.	4r	.
4C	.	.	.	.	.	.	4.ee-X	ch'a
2BB-y	4BB-y	ch'a	4f	ch'a	4b-y	ch'a	.	.
.	.	.	.	.	.	.	8ee-i	le
.	8BB-y	le	8f	le	8b-y	le	4dd	vo-
.	8BB-y	vo-	8f	vo-	8b-y	vo-	.	.
=17	=17	=17	=17	=17	=17	=17	=17	=17
2E-i	4E-i	-str'om-	4.e-X	-str'om-	4.g	-str'om-	8cc	-str'om-
.	.	.	.	.	.	.	8b-y	-bre
.	4E-i	-bre	.	.	.	.	2b-y	gra-
.	.	.	8d	-bre	8g	-bre	.	.
2F	2F	gra-	2c	gra-	2f	gra-	.	.
.	.	.	.	.	.	.	4a	.
=18	=18	=18	=18	=18	=18	=18	=18	=18
2BB-y	2BB-y	-te	2d	-te	4f	-te	1b-y	-te
.	.	.	.	.	4f	Gia-	.	.
2B-y	4r	.	2r	.	4d	-mai	.	.
.	4B-y	Gia-	.	.	4d	sog-	.	.
=19	=19	=19	=19	=19	=19	=19	=19	=19
2G	4G	-mai	2r	.	2g	-gior-	4r	.
.	4G	sog-	.	.	.	.	4b-y	Gia-
2c	2c	-gior-	4r	.	2e	-ni,	8g	-mai
.	.	.	.	.	.	.	8g	sog-
.	.	.	4c	Gia-	.	.	[4cc	-gior-
=20	=20	=20	=20	=20	=20	=20	=20	=20
2F	4F	-ni,	4A	-mai	4r	.	4cc]	.
.	4F	<Gia-	4A	sog-	4a	<Gia-	4f	-ni al-
2D	4D	-mai	2d	-gior-	4f#X	-mai	4a	-cun,
.	4D	sog-	.	.	4f#i	sog-	4d	al-
=21	=21	=21	=21	=21	=21	=21	=21	=21
2G	4G	-gior-	2BnX	-ni al-	4.g	-gior-	4d	-cun
.	4GG	-ni> al-	.	.	.	.	4d	fe-
.	.	.	.	.	8g	-ni> al-	.	.
4C	4C	-cun	4.c	-cun	4g	-cun	4e-X	-de-
4D	4D	fe-	.	.	4fnXi	fe-	4f	-le a-
.	.	.	8B-i	fe-	.	.	.	.
=22	=22	=22	=22	=22	=22	=22	=22	=22
4E-i	4E-X	-de-	4.B-y	-de-	4e-X	-de-	2.g	-man-
4C	4C	-le a-	.	.	4e-i	-le a-	.	.
.	.	.	8A	-le a-	.	.	.	.
2D	2D	-man-	2A	-man-	2d	-man-	.	.
.	.	.	.	.	.	.	4f#X	.
=23	=23	=23	=23	=23	=23	=23	=23	=23
2GG	2GG	-te,	2G	-te,	2d	-te,	2g	-te,
4G	4r	.	2r	.	2r	.	4r	.
4B-y	4B-y	Per-	.	.	.	.	4dd	Per-
=24	=24	=24	=24	=24	=24	=24	=24	=24
4G	4G	-ché	2r	.	4r	.	4b-y	-ché
4A	4A	se	.	.	4f	Per-	4cc	se
[2B-y	[2B-y	fia	4r	.	4.d	-ché	[2dd	fia
.	.	.	4f	Per-	.	.	.	.
.	.	.	.	.	8e	se	.	.
=25	=25	=25	=25	=25	=25	=25	=25	=25
4B-]	4B-]	.	4d	-ché	2f	fia,	4dd]	.
4A	4A	ch'a	4e	se	.	.	4cc	ch'a
4G	4G	le	2f	fia,	2r	.	4b-y	le
4F	4F	vo-	.	.	.	.	4a	vo-
=26	=26	=26	=26	=26	=26	=26	=26	=26
2.E-X	2E-X	-str'om-	4r	.	4r	.	4.g	-str'om-
.	.	.	4B-y	<Per-	4e-X	<Per-	.	.
.	.	.	.	.	.	.	8f	-bre
.	4E-i	-bre,	2G	-ché	4B-y	-ché	2e-X	gra-
4E-i	4E-i	ch'a	.	.	4c	se	.	.
=27	=27	=27	=27	=27	=27	=27	=27	=27
4D	4D	le	2A	se	2d	fia>	2f	-te,
4C	4C	vo-	.	.	.	.	.	.
2BB-y	2BB-y	-str'om-	8B-y	fia>	8r	.	8r	.
.	.	.	8d	ch'a	8f	ch'a	8b-y	ch'a
.	.	.	8d	le	8f	le	8b-y	le
.	.	.	8d	vo-	8f	vo-	8b-y	vo-
=28	=28	=28	=28	=28	=28	=28	=28	=28
2E-i	2E-i	-bre	8c	-str'om-	4.e-X	-str'om-	4.g	-str'om-
.	.	.	8B-y	-bre	.	.	.	.
.	.	.	2B-y	gra-	.	.	.	.
.	.	.	.	.	8d	-bre	8g	-bre
2F	2F	gra-	.	.	2c	gra-	2f	gra-
.	.	.	4A	.	.	.	.	.
=29	=29	=29	=29	=29	=29	=29	=29	=29
2BB-y	2BB-y	-te	1B-y	-te	4d	-te	1f	-te
.	.	.	.	.	4f	Gia-	.	.
2B-y	4r	.	.	.	4d	-mai	.	.
.	4B-y	Gia-	.	.	4d	sog-	.	.
=30	=30	=30	=30	=30	=30	=30	=30	=30
2G	4G	-mai	2r	.	2g	-gior-	4r	.
.	4G	sog-	.	.	.	.	4b-y	Gia-
2c	2c	-gior-	4r	.	2e	-ni,	8g	-mai
.	.	.	.	.	.	.	8g	sog-
.	.	.	4c	Gia-	.	.	[4cc	-gior-
=31	=31	=31	=31	=31	=31	=31	=31	=31
2F	4F	-ni,	4A	-mai	4r	.	4cc]	.
.	4F	<Gia-	4A	sog-	4a	<Gia-	4f	-ni al-
2D	4D	-mai	2d	-gior-	4f#X	-mai	4a	-cun,
.	4D	sog-	.	.	4f#i	sog-	4d	al-
=32	=32	=32	=32	=32	=32	=32	=32	=32
2G	4G	-gior-	2BnX	-ni al-	4.g	-gior-	4d	-cun
.	4GG	-ni> al-	.	.	.	.	4d	fe-
.	.	.	.	.	8g	-ni> al-	.	.
4C	4C	-cun	4.c	-cun	4g	-cun	4e-X	-de-
4D	4D	fe-	.	.	4fnXi	fe-	4f	-le a-
.	.	.	8B-i	fe-	.	.	.	.
=33	=33	=33	=33	=33	=33	=33	=33	=33
4E-X	4E-X	-de-	4.B-y	-de-	4e-X	-de-	(2.g	-man-
4C	4C	-le a-	.	.	4e-i	-le a-	.	.
.	.	.	8A	-le a-	.	.	.	.
2D	2D	-man-	2A	-man-	2d	-man-	.	.
.	.	.	.	.	.	.	4f#X)	.
=34	=34	=34	=34	=34	=34	=34	=34	=34
1GG	1GG	-te.	1G	-te.	1d	-te.	1g	-te.
=35||	=35||	=35||	=35||	=35||	=35||	=35||	=35||	=35||
!!LO:TX:a:t=Quarta, ed ultima parte.
2G	1r	.	2r	.	1r	.	2.d	Sen-
[2G	.	.	[2G	Sen-	.	.	.	.
.	.	.	.	.	.	.	8e	-ta
.	.	.	.	.	.	.	8f	sve-
=36	=36	=36	=36	=36	=36	=36	=36	=36
4G]	1r	.	4G]	.	2.G	Sen-	2.g	-gliar-
4F	.	.	8A	-ta	.	.	.	.
.	.	.	8B-y	sve-	.	.	.	.
4E	.	.	4c	-gliar-	.	.	.	.
4D	.	.	4d	-si al	8A	-ta	4f	-si al
.	.	.	.	.	8B-y	sve-	.	.
=37	=37	=37	=37	=37	=37	=37	=37	=37
2.C	2.C	Sen-	2G	cor,	4c	-gliar-	4e	cor,
.	.	.	.	.	4G	-si al	2e	<Sen-
.	.	.	[2C	<Sen-	2G	cor	.	.
4BB-y	8D	-ta	.	.	.	.	8f	-ta
.	8E	sve-	.	.	.	.	8g	sve-
=38	=38	=38	=38	=38	=38	=38	=38	=38
4AA	4F	-gliar-	4C]	.	2r	.	4a	-gliar-
4GG	4G	-si al	8D	-ta	.	.	4b-y	-si al
.	.	.	8D	sve-	.	.	.	.
[2FF	4A	cor	8F	-gliar-	4r	.	4cc	cor>
.	.	.	8G	-si al	.	.	.	.
.	[4F	dol-	4A	cor>	[4f	dol-	4cc	dol-
=39	=39	=39	=39	=39	=39	=39	=39	=39
4FF]	4F]	.	4A	dol-	4f]	.	8cc	-ce
.	.	.	.	.	.	.	8cc	pie-
4F	8F	-ce	8A	-ce	8f	-ce	2dd	-ta-
.	8F	pie-	8F	pie-	8a	pie-	.	.
2E	2E	-ta-	2G	-ta-	2g	-ta-	.	.
.	.	.	.	.	.	.	16ccL	.
.	.	.	.	.	.	.	16b-y	.
.	.	.	.	.	.	.	16a	.
.	.	.	.	.	.	.	16gJ	.
=40	=40	=40	=40	=40	=40	=40	=40	=40
2.D	1D	-de	1d	-de	1a	-de	1f#X	-de
4D	.	.	.	.	.	.	.	.
=41	=41	=41	=41	=41	=41	=41	=41	=41
4D	1r	.	2r	.	1r	.	2r	.
4C	.	.	.	.	.	.	.	.
[2BB-y	.	.	4d	Del-	.	.	4b-y	Del-
.	.	.	8e	-le	.	.	8cc	-le
.	.	.	8e	sven-	.	.	8cc	sven-
=42	=42	=42	=42	=42	=42	=42	=42	=42
4BB-]	4BB-y	Del-	2.f	-tu-	4d	Del-	2.dd	-tu-
4C	8C	-le	.	.	8e	-le	.	.
.	8C	sven-	.	.	8e	sven-	.	.
4D	4D	-tu-	.	.	4f	-tu-	.	.
4E	4E	-re	4e	-re	4g	-re	4cc	-re
=43	=43	=43	=43	=43	=43	=43	=43	=43
[1F	1F	mie	1c	mie	2f	mie	1a	mie
.	.	.	.	.	4f	sì	.	.
.	.	.	.	.	[4a	va-	.	.
=44	=44	=44	=44	=44	=44	=44	=44	=44
2F]	2F	sì	2r	.	4a]	.	4cc	sì
.	.	.	.	.	4f	-rie e	2dd	va-
2G	2G	va-	4r	.	2d	tan-	.	.
.	.	.	4d	sì	.	.	4b-y	-rie e
=45	=45	=45	=45	=45	=45	=45	=45	=45
2C	2C	-rie e	4.e-X	va-	4.c	-te,	(2.g	tan-
.	.	.	8c	-rie e	8e-X	e	.	.
2D	2D	tan-	2A	tan-	2d	tan-	.	.
.	.	.	.	.	.	.	4f#X)	.
=46	=46	=46	=46	=46	=46	=46	=46	=46
4GG	2GG	-te,	2G	-te,	2d	-te,	2g	-te,
2G	.	.	.	.	.	.	.	.
.	2r	.	2r	.	2r	.	2r	.
4F#X	.	.	.	.	.	.	.	.
=47	=47	=47	=47	=47	=47	=47	=47	=47
4G	4r	.	4r	.	4r	.	4r	.
4A	4A	E	4c	E	4f	E	4cc	E
[2B-y	[2B-y	di-	[2d	di-	[2f	di-	[2b-y	di-
=48	=48	=48	=48	=48	=48	=48	=48	=48
4B-]	2B-]	.	2d]	.	2f]	.	2b-]	.
4A	.	.	.	.	.	.	.	.
4G	2G	-ca:	2d	-ca:	2g	-ca:	2b-y	-ca:
4F	.	.	.	.	.	.	.	.
=49	=49	=49	=49	=49	=49	=49	=49	=49
1E-X	1E-X	'Ah	2r	.	2r	.	2r	.
.	.	.	2e-X	'Ah	2g	'Ah	2b-y	'Ah
=50	=50	=50	=50	=50	=50	=50	=50	=50
4D	4D	trop-	4B-y	trop-	4f	trop-	4.b-y	trop-
4C	4C	-po in-	4c	-po in-	4e-X	-po in-	.	.
.	.	.	.	.	.	.	8a	-po in-
2BB-y	2BB-y	-giu-	2d	-giu-	2f	-giu-	4b-y	-giu-
.	.	.	.	.	.	.	4dd	-sta em-
=51	=51	=51	=51	=51	=51	=51	=51	=51
2E-i	4E-i	-sta em-	4e-X	-sta em-	4g	-sta em-	8cc	-pia
.	.	.	.	.	.	.	8b-y	mer-
.	8E-i	-pia	8e-i	-pia	8g	-pia	2b-y	-ce-
.	8E-i	mer-	8d	mer-	8g	mer-	.	.
2F	2F	-ce-	2c	-ce-	2f	-ce-	.	.
.	.	.	.	.	.	.	4a	.
=52	=52	=52	=52	=52	=52	=52	=52	=52
2BB-y	1BB-y	-de	2B-y	-de	2f	-de	2b-y	-de
2B-y	.	.	2r	.	4d	Diè	4f	Diè
.	.	.	.	.	4d	For-	4f	For-
=53	=53	=53	=53	=53	=53	=53	=53	=53
2G	2r	.	4G	Diè	4g	-tu-	4b-y	-tu-
.	.	.	4G	For-	8g	-na ed	8b-y	-na ed
.	.	.	.	.	8f	A-	8a	A-
2c	4C	Diè	4c	-tu-	4e	-mor,	4g	-mor,
.	4C	For-	8c	-na ed	8e	<Diè	[4cc	<Diè
.	.	.	8B-y	A-	8e	For-	.	.
=54	=54	=54	=54	=54	=54	=54	=54	=54
2F	4F	-tu-	4A	-mor,	4f	-tu-	4cc]	.
.	8F	-na ed	8A	<Diè	8f	-na ed	4cc	For-
.	8E	A-	8A	For-	8g	A-	.	.
2D	2D	-mor	4d	-tu-	2a	-mor>	4ff	-tu-
.	.	.	8d	-na ed	.	.	8ff	-na ed
.	.	.	8c	A-	.	.	8ee	A-
=55	=55	=55	=55	=55	=55	=55	=55	=55
2G	2G	a	4B-y	-mor>	4r	.	4dd	-mor>
.	.	.	4d	a	4g	a	4dd	a
[2C	[2C	sì	[2e-X	sì	2g	sì	[2cc	sì
=56	=56	=56	=56	=56	=56	=56	=56	=56
4C]	4C]	.	4e-]	.	4g	gran	4cc]	.
4GG	4GG	gran	4d	gran	2g	fe-	4b-y	gran
2D	2D	fe-	2d	fe-	.	.	2a	fe-
.	.	.	.	.	4f#X	.	.	.
=57	=57	=57	=57	=57	=57	=57	=57	=57
4GG	2GG	-de,'	2d	-de,'	2g	-de,'	2g	-de,'
2G	.	.	.	.	.	.	.	.
.	2r	.	2r	.	4r	.	4b-y	E
4F#X	.	.	.	.	4d	E	[4dd	di-
=58	=58	=58	=58	=58	=58	=58	=58	=58
4G	4r	.	2r	.	2e-X	di-	4dd]	.
4A	4A	E	.	.	.	.	4cc	-ca:
[2B-y	[2B-y	di-	4r	.	2d	-ca:	2r	.
.	.	.	4d	E	.	.	.	.
=59	=59	=59	=59	=59	=59	=59	=59	=59
4B-]	2B-]	.	2f	di-	2r	.	1dd	'Ah,
4A	.	.	.	.	.	.	.	.
4G	2G	-ca:	2B-y	-ca:	[2g	'Ah,	.	.
4F	.	.	.	.	.	.	.	.
=60	=60	=60	=60	=60	=60	=60	=60	=60
2.E-X	1E-X	'Ah	2r	.	2g]	.	2r	.
.	.	.	2e-X	'Ah	4r	.	2b-y	<Ah>
4E-i	.	.	.	.	4g	<Ah>	.	.
=61	=61	=61	=61	=61	=61	=61	=61	=61
4D	4D	trop-	4B-y	trop-	4f	trop-	4.b-y	trop-
4C	4C	-po in-	4c	-po in-	4e-X	-po in-	.	.
.	.	.	.	.	.	.	8a	-po in-
2BB-y	2BB-y	-giu-	2d	-giu-	2f	-giu-	4b-y	-giu-
.	.	.	.	.	.	.	4dd	-sta em-
=62	=62	=62	=62	=62	=62	=62	=62	=62
2E-i	4E-i	-sta em-	4e-X	-sta em-	4g	-sta em-	8cc	-pia
.	.	.	.	.	.	.	8b-y	mer-
.	8E-i	-pia	8e-i	-pia	8g	-pia	2b-y	-ce-
.	8E-i	mer-	8d	mer-	8g	mer-	.	.
2F	2F	-ce-	2c	-ce-	2f	-ce-	.	.
.	.	.	.	.	.	.	4a	.
=63	=63	=63	=63	=63	=63	=63	=63	=63
2BB-y	1BB-y	-de	1B-y	-de	2f	-de	2b-y	-de
2B-y	.	.	.	.	4d	Diè	4f	Diè
.	.	.	.	.	4d	For-	4f	For-
=64	=64	=64	=64	=64	=64	=64	=64	=64
2G	2r	.	4G	Diè	4g	-tu-	4b-y	-tu-
.	.	.	4G	For-	8g	-na ed	8b-y	-na ed
.	.	.	.	.	8f	A-	8a	A-
2c	4C	Diè	4c	-tu-	4e	-mor,	4g	-mor,
.	4C	For-	8c	-na ed	8e	<Diè	[4cc	<Diè
.	.	.	8B-y	A-	8e	For-	.	.
=65	=65	=65	=65	=65	=65	=65	=65	=65
2F	4F	-tu-	4A	-mor,	4f	-tu-	4cc]	.
.	8F	-na ed	8A	<Diè	8f	-na ed	4cc	For-
.	8E	A-	8A	For-	8g	A-	.	.
2D	2D	-mor	4d	-tu-	2a	-mor>	4ff	-tu-
.	.	.	8d	-na ed	.	.	8ff	-na ed
.	.	.	8c	A-	.	.	8ee	A-
=66	=66	=66	=66	=66	=66	=66	=66	=66
2G	2G	a	4BnX	-mor	4r	.	4dd	-mor>
.	.	.	4d	a	4g	a	4dd	a
[2C	[2C	sì	2e-X	sì	2g	sì	2cc	sì
=67	=67	=67	=67	=67	=67	=67	=67	=67
2C]	4C]	.	2c	gran	2e-X	gran	4a	gran
.	4C	gran	.	.	.	.	2g	fe-
2D	2D	fe-	2A	fe-	2d	fe-	.	.
.	.	.	.	.	.	.	4f#X	.
=68	=68	=68	=68	=68	=68	=68	=68	=68
1GGl	1GGl	-de.'	1BnXl	-de.'	1dl	-de.'	1gl	-de.'
==	==	==	==	==	==	==	==	==
*-	*-	*-	*-	*-	*-	*-	*-	*-
!!!system-decoration: [*]
!!!RDF**kern: i = editorial accidental
!!!RDF**kern: l = terminal long
!!!ENC: Emiliano Ricciardi
!!!END:
!!!EED: Ricciardi, Emiliano
!!!EEV: 2020/08/04
!!!YEC: Copyright 2020 Emiliano Ricciardi, All Rights Reserved
!!!ONB: Translated from MusicXML on 2020/08/04 and edited by Craig Stuart Sapp
!!@@BEGIN:	VERSEDATA
!!@CATALOGNUM:	Tsg07020
!!@LAST_MODIFIED: 2020/07/12
!!@TITLE:		Indi dicea piangendo: in voi serbate
!!@CANTO:		VII
!!@OTTAVA:	20
!!@MANUSRC:	G-Al, G-Au, G-Br<sub>1</sub>, G-Br<sub>2</sub>, G-Es<sub>1</sub>, G-Es<sub>2</sub>, G-Es<sub>3</sub>, G-F, G-Fr, G-Fr<sub>1</sub>, G-Fr<sub>2</sub>, G-Mc<sub>1</sub>, G-Mg, G-Mr, G-Mt, G-N
!!@PRINTSRC:	G-1580CM, G-1581B, G-1581CV, G-1581R, G-1581MR, G-1581P, G-1581V, G-1581V<sub>bis</sub>, G-1582C, G-1582M, G-1582MC, G-1582P, G-1582SC, G-1582SC<sub>bis</sub>, G-1583S, G-1584O, G-1584S, G-1585C, G-1585S, G-1588S, G-1589S, G-1590B, G-1590S, G-1592S, G-1593S, G-1594C, G-1595C, G-1597C, G-1598C, G-1599C, G-1600C, G-1600S, G-1601C, G-1601R, G-1602C, G-1604C, G-1604Cl, G-1604F, G-1604P, G-1606B, G-1606B<sub>bis</sub>, G-1606L, G-1607ZR, G-1608DP, G-1609GC, G-1610M, G-1611S, G-1611V, G-1612P, G-1613M, G-1613P, G-1613V, G-1615P, G-1616M, G-1617P, G-1619B, G-1619V, G-1620M, G-1620S, G-1621R, G-1624I, G-1624MT, G-1625C, G-1625S, G-1625SS, G-1626C, G-1626Co, G-1627M, G-1628T, G-1628Tu, G-1630L, G-1630T, G-1632FT, G-1639CF, G-1642M, G-1643I, G-1644P, G-1644S
!!@@BEGIN:	VERSES
!!@ABOUTIT:
!!@ABOUTEN:
!!@EDITOR:	Angelo Solerti
!!@EDITION_TITLE: Gerusalemme liberata. Poema eroico di Torquato Tasso. Edizione critica sui manoscritti e le prime stampe.
!!@EDITION_LOC:	Florence
!!@EDITION_PUB:	G. Barbera
!!@EDITION_DATE:  1895
!!@EDITION_VOL:	2
!!@EDITION_PAGE:  260
!!@TRANSLATOR:	Emiliano Ricciardi and Amyrose McCue Gill
!!@VERSE:
!!	Indi dicea piangendo: "In voi serbate
!!	Questa dolente istoria, amiche piante;
!!	Perché, se fia ch’a le vostr’ombre grate
!!	Giammai soggiorni alcun fedele amante,
!!	Senta svegliarsi al cor dolce pietate
!!	De le sventure mie sì varie e tante;
!!	E dica: 'Ah troppo ingiusta empia mercede
!!	Diè fortuna ed amore a sì gran fede!'"
!!@MVERSE_DATE:
!!@MVERSE:
!!	In||di di|cea|| pian|gen||do:_"In voi ser|ba||te	=a++
!!	Que||sta do|len||te_i|sto||ria,_a|mi||che pian||te;	=b
!!	Per|ché||, se fia ch’a le vo||str’om||bre gra||te	=a (_ when there is ’?)
!!	Giam|mai|| sog|gior||ni_al|cun|| fe|de||le_a|man||te,	=b
!!	Sen||ta sve|gliar||si_al cor dol||ce pie|ta||te		=a++
!!	De le sven|tu||re mie sì va||rie_e tan||te;		=b
!!	E di||ca:_'Ah trop||po_in|giu||sta_em||pia mer|ce||de	=c++ (S line 7, V line 8)
!!	Diè for|tu||na_ed a|mo||re_a sì gran fe||de!'"		=c
!!@TVERSE:
!!	Then she said, weeping: "In you [is] preserved
!!	This sorrowful tale, tree friends;
!!	For, if it should be that in your welcome shadows
!!	Ever abides any faithful lover,
!!	May he feel awakening in his heart sweet compassion
!!	For my misfortunes—so varied and so many—
!!	And may he say: 'Ah, too unjust, wicked! Mercy
!!	Should grant fortune and love to such great faith.'"
!!@@END:		VERSES
!!@OTHER_CRIT_ED:  Torquato Tasso, <i>Gerusalemme liberata</i>, ed. Lanfranco Caretti, 2 vols. (Bari: Laterza, 1967).
!!@ATTRIBUTION_ABOUT:
!!@DATING:	mid-1560s through 1570s
!!@DEDICATEE:	Duke Alfonso II d'Este
!!@COMMENTARY:
!!@@END:		VERSEDATA
!!@@BEGIN: SETTING
!!@CATALOGNUM:	Tsg07020c
!!@CANTO:		VII
!!@OTTAVA:	20
!!@TITLE:		Indi dicea piangendo: "In voi serbate
!!@COMPOSER:	Cifra, Antonio
!!@PARTS:		3-4 (verses 1-4; 5-8) of 4
!!@PRINCEPSTITLE:	Scherzi et arie a une, due, tre, et quattro voci per cantare nel clavicembalo ò altro simile istromento 
!!@PRINCEPSLOC:	Venice
!!@NORMLOC:	Venice
!!@NORMPUB:	Giacomo Vincenzi
!!@NORMPUBSHORT:	G. Vincenzi
!!@PRINCEPSPUB:	Giacomo Vincenzi
!!@PRINCEPSYEAR:	1614
!!@PRINCEPSRISM:	
!!@OVOICES:	4+bc
!!@EXTANTVOICES:	4+bc
!!@OMENSURATION:	C
!!@OCLEFS:	C1,C3,C4,C4,F4
!!@OTIME:		
!!@OKEYSIG:	b-
!!@FINAL:		(G)G
!!@TIMPEDITOR:	Ricciardi, Emiliano
!!@REPRINTS:	
!!@@END: SETTING
